public/images/Google Logo.svg

<svg width="85" height="28" viewBox="0 0 85 28" fill="none" xmlns="http://www.w3.org/2000/svg">
<g clip-path="url(#clip0_2_148)">
<path d="M36.2463 14.3591C36.2463 18.2456 33.1611 21.1095 29.375 21.1095C25.5888 21.1095 22.5036 18.2456 22.5036 14.3591C22.5036 10.4452 25.5888 7.60864 29.375 7.60864C33.1611 7.60864 36.2463 10.4452 36.2463 14.3591ZM33.2384 14.3591C33.2384 11.9304 31.4503 10.2686 29.375 10.2686C27.2997 10.2686 25.5116 11.9304 25.5116 14.3591C25.5116 16.7634 27.2997 18.4495 29.375 18.4495C31.4503 18.4495 33.2384 16.7604 33.2384 14.3591Z" fill="#EA4335"/>
<path d="M51.0698 14.3591C51.0698 18.2456 47.9847 21.1095 44.1985 21.1095C40.4123 21.1095 37.3272 18.2456 37.3272 14.3591C37.3272 10.4482 40.4123 7.60864 44.1985 7.60864C47.9847 7.60864 51.0698 10.4452 51.0698 14.3591ZM48.0619 14.3591C48.0619 11.9304 46.2738 10.2686 44.1985 10.2686C42.1232 10.2686 40.3351 11.9304 40.3351 14.3591C40.3351 16.7634 42.1232 18.4495 44.1985 18.4495C46.2738 18.4495 48.0619 16.7604 48.0619 14.3591Z" fill="#FBBC05"/>
<path d="M65.2757 8.01647V20.1356C65.2757 25.1208 62.2924 27.1569 58.7657 27.1569C55.4458 27.1569 53.4477 24.9686 52.6942 23.1791L55.313 22.1047C55.7794 23.2034 56.922 24.4999 58.7626 24.4999C61.0201 24.4999 62.4191 23.1273 62.4191 20.5434V19.5726H62.3141C61.6408 20.3912 60.3438 21.1065 58.707 21.1065C55.2821 21.1065 52.1445 18.1665 52.1445 14.3834C52.1445 10.573 55.2821 7.60864 58.707 7.60864C60.3407 7.60864 61.6377 8.32386 62.3141 9.11821H62.4191V8.01951H65.2757V8.01647ZM62.6322 14.3834C62.6322 12.0065 61.0232 10.2686 58.9757 10.2686C56.9004 10.2686 55.1617 12.0065 55.1617 14.3834C55.1617 16.736 56.9004 18.4495 58.9757 18.4495C61.0232 18.4495 62.6322 16.736 62.6322 14.3834Z" fill="#4285F4"/>
<path d="M69.9853 0.913086V20.6957H67.0515V0.913086H69.9853Z" fill="#34A853"/>
<path d="M81.418 16.5809L83.7527 18.1148C82.9992 19.2135 81.1833 21.1066 78.0457 21.1066C74.1545 21.1066 71.2485 18.1422 71.2485 14.3561C71.2485 10.3418 74.1792 7.60571 77.7091 7.60571C81.2636 7.60571 83.0023 10.3935 83.5705 11.9001L83.8824 12.667L74.7258 16.4044C75.4269 17.7588 76.517 18.4496 78.0457 18.4496C79.5774 18.4496 80.6398 17.707 81.418 16.5809ZM74.2317 14.1522L80.3526 11.6475C80.016 10.8044 79.003 10.217 77.811 10.217C76.2823 10.217 74.1545 11.547 74.2317 14.1522Z" fill="#EA4335"/>
<path d="M11.3985 12.6031V9.73915H21.1913C21.287 10.2383 21.3364 10.8287 21.3364 11.4678C21.3364 13.6165 20.7404 16.2735 18.8195 18.1665C16.9511 20.0839 14.5639 21.1065 11.4016 21.1065C5.54009 21.1065 0.611267 16.4013 0.611267 10.6248C0.611267 4.84828 5.54009 0.143066 11.4016 0.143066C14.6442 0.143066 16.9542 1.39698 18.6898 3.03133L16.6392 5.0522C15.3946 3.90176 13.7085 3.00698 11.3985 3.00698C7.11818 3.00698 3.77053 6.40654 3.77053 10.6248C3.77053 14.8431 7.11818 18.2426 11.3985 18.2426C14.1748 18.2426 15.756 17.1439 16.7689 16.1457C17.5904 15.3361 18.1308 14.1796 18.3439 12.6L11.3985 12.6031Z" fill="#4285F4"/>
</g>
<defs>
<clipPath id="clip0_2_148">
<rect width="84" height="28" fill="white" transform="translate(0.5)"/>
</clipPath>
</defs>
</svg>

<svg xmlns="http://www.w3.org/2000/svg" width="85" height="28" fill="none"><g clip-path="url(#a)"><path fill="#EA4335" d="M36.246 14.36c0 3.886-3.085 6.75-6.871 6.75-3.786 0-6.871-2.864-6.871-6.75 0-3.915 3.085-6.751 6.871-6.751 3.786 0 6.871 2.836 6.871 6.75Zm-3.008 0c0-2.43-1.788-4.091-3.863-4.091s-3.863 1.661-3.863 4.09c0 2.404 1.788 4.09 3.863 4.09s3.863-1.689 3.863-4.09Z"/><path fill="#FBBC05" d="M51.07 14.36c0 3.886-3.085 6.75-6.871 6.75-3.787 0-6.872-2.864-6.872-6.75 0-3.912 3.085-6.751 6.872-6.751 3.786 0 6.87 2.836 6.87 6.75Zm-3.008 0c0-2.43-1.788-4.091-3.863-4.091-2.076 0-3.864 1.661-3.864 4.09 0 2.404 1.788 4.09 3.864 4.09 2.075 0 3.863-1.689 3.863-4.09Z"/><path fill="#4285F4" d="M65.276 8.016v12.12c0 4.985-2.984 7.02-6.51 7.02-3.32 0-5.318-2.187-6.072-3.977l2.619-1.074c.466 1.098 1.609 2.395 3.45 2.395 2.257 0 3.656-1.373 3.656-3.957v-.97h-.105c-.673.818-1.97 1.534-3.607 1.534-3.425 0-6.563-2.94-6.563-6.724 0-3.81 3.138-6.774 6.563-6.774 1.634 0 2.93.715 3.607 1.51h.105v-1.1h2.857v-.003Zm-2.644 6.367c0-2.376-1.609-4.114-3.656-4.114-2.076 0-3.814 1.738-3.814 4.114 0 2.353 1.738 4.067 3.814 4.067 2.047 0 3.656-1.714 3.656-4.067Z"/><path fill="#34A853" d="M69.985.913v19.783h-2.933V.913h2.933Z"/><path fill="#EA4335" d="m81.418 16.58 2.335 1.535c-.754 1.099-2.57 2.992-5.707 2.992-3.892 0-6.797-2.965-6.797-6.75 0-4.015 2.93-6.751 6.46-6.751 3.555 0 5.293 2.787 5.861 4.294l.312.767-9.156 3.737c.7 1.355 1.791 2.046 3.32 2.046 1.531 0 2.594-.743 3.372-1.87Zm-7.186-2.428 6.12-2.504c-.336-.844-1.349-1.431-2.541-1.431-1.529 0-3.657 1.33-3.58 3.935Z"/><path fill="#4285F4" d="M11.399 12.603V9.74h9.792c.096.5.145 1.09.145 1.729 0 2.149-.596 4.805-2.516 6.698-1.869 1.918-4.256 2.94-7.418 2.94-5.862 0-10.79-4.705-10.79-10.481C.611 4.848 5.54.143 11.401.143c3.242 0 5.552 1.254 7.288 2.888l-2.05 2.021c-1.245-1.15-2.931-2.045-5.242-2.045-4.28 0-7.627 3.4-7.627 7.618a7.573 7.573 0 0 0 7.628 7.618c2.776 0 4.357-1.1 5.37-2.097.821-.81 1.362-1.966 1.575-3.546l-6.946.003Z"/></g><defs><clipPath id="a"><path fill="#fff" d="M.5 0h84v28H.5z"/></clipPath></defs></svg>
